src/assets/images/default_logo.svg

<svg width="92" height="92" viewBox="0 0 92 92" fill="none" xmlns="http://www.w3.org/2000/svg">
<path d="M92 0H0V92H92V0Z" fill="#18181B"/>
<path d="M40.4462 73.3154H9.7741C9.36818 73.3154 9.03912 73.6445 9.03912 74.0504V82.2037C9.03912 82.6096 9.36818 82.9386 9.7741 82.9386H40.4462C40.8521 82.9386 41.1812 82.6096 41.1812 82.2037V74.0504C41.1812 73.6445 40.8521 73.3154 40.4462 73.3154Z" fill="white"/>
<path d="M9.03912 62.2842C9.03912 62.6199 9.17247 62.9418 9.40984 63.1792C9.64721 63.4166 9.96915 63.5499 10.3048 63.5499H39.9158C40.0826 63.5508 40.2478 63.5186 40.4021 63.4554C40.5564 63.3922 40.6967 63.2991 40.8149 63.1815C40.9331 63.0638 41.0269 62.924 41.0909 62.77C41.1549 62.6161 41.1879 62.451 41.1879 62.2842V55.1924C41.1887 55.0251 41.1564 54.8593 41.0928 54.7046C41.0291 54.5499 40.9355 54.4093 40.8172 54.291C40.6989 54.1728 40.5583 54.0791 40.4036 54.0155C40.2489 53.9518 40.0831 53.9195 39.9158 53.9203H21.3132C20.9775 53.9203 20.6556 53.787 20.4182 53.5496C20.1808 53.3123 20.0475 52.9903 20.0475 52.6546V32.3966C20.0475 32.0609 19.9141 31.7389 19.6768 31.5016C19.4394 31.2642 19.1175 31.1309 18.7818 31.1309H10.3048C9.96915 31.1309 9.64721 31.2642 9.40984 31.5016C9.17247 31.7389 9.03912 32.0609 9.03912 32.3966V62.2842Z" fill="white"/>
<path d="M41.1886 17.3587V10.851C41.1886 10.6465 41.1483 10.444 41.07 10.255C40.9917 10.066 40.877 9.8943 40.7324 9.74966C40.5877 9.60503 40.416 9.4903 40.2271 9.41202C40.0381 9.33374 39.8355 9.29346 39.631 9.29346H10.5967C10.1836 9.29346 9.78743 9.45756 9.49533 9.74966C9.20323 10.0418 9.03912 10.4379 9.03912 10.851V44.1839C9.03912 44.597 9.20323 44.9931 9.49533 45.2852C9.78743 45.5773 10.1836 45.7414 10.5967 45.7414H18.4899C18.6944 45.7414 18.897 45.7012 19.086 45.6229C19.2749 45.5446 19.4466 45.4299 19.5913 45.2852C19.7359 45.1406 19.8506 44.9689 19.9289 44.7799C20.0072 44.591 20.0475 44.3884 20.0475 44.1839V20.4739C20.0475 20.0608 20.2116 19.6646 20.5037 19.3725C20.7958 19.0804 21.192 18.9163 21.6051 18.9163H39.6232C39.8284 18.9173 40.0317 18.8777 40.2216 18.7999C40.4114 18.722 40.584 18.6075 40.7294 18.4627C40.8748 18.318 40.9902 18.146 41.069 17.9565C41.1477 17.7671 41.1882 17.5639 41.1882 17.3587H41.1886Z" fill="white"/>
<path d="M63.3851 37.9981H70.3946C70.8077 37.9981 71.2039 38.1622 71.496 38.4543C71.7881 38.7464 71.9522 39.1425 71.9522 39.5556V63.6543H81.403C81.8161 63.6543 82.2122 63.4902 82.5043 63.1981C82.7964 62.906 82.9605 62.5098 82.9605 62.0967V29.955C82.9605 29.5419 82.7964 29.1458 82.5043 28.8537C82.2122 28.5616 81.8161 28.3975 81.403 28.3975H52.3764C51.9633 28.3975 51.5672 28.5616 51.2751 28.8537C50.9829 29.1458 50.8188 29.5419 50.8188 29.955V62.1568C50.8343 62.5594 51.0052 62.9404 51.2956 63.2198C51.5861 63.4991 51.9735 63.6549 52.3764 63.6547H60.2696C60.4742 63.6547 60.6767 63.6144 60.8657 63.5361C61.0547 63.4578 61.2264 63.3431 61.371 63.1984C61.5156 63.0538 61.6304 62.8821 61.7086 62.6931C61.7869 62.5042 61.8272 62.3016 61.8272 62.0971V39.5563C61.8272 39.3518 61.8675 39.1493 61.9458 38.9603C62.024 38.7713 62.1388 38.5996 62.2834 38.455C62.428 38.3103 62.5997 38.1956 62.7887 38.1173C62.9777 38.0391 63.1802 37.9988 63.3848 37.9988L63.3851 37.9981Z" fill="white"/>
<path d="M82.2185 8.91162H51.5538C51.1479 8.91162 50.8188 9.24068 50.8188 9.6466V17.7999C50.8188 18.2058 51.1479 18.5348 51.5538 18.5348H82.2185C82.6244 18.5348 82.9535 18.2058 82.9535 17.7999V9.6466C82.9535 9.24068 82.6244 8.91162 82.2185 8.91162Z" fill="white"/>
<path d="M70.3946 73.4576H63.3851C63.18 73.4576 62.9768 73.4171 62.7874 73.3383C62.5979 73.2596 62.4259 73.1442 62.2811 72.9988C62.1364 72.8533 62.0218 72.6808 61.944 72.4909C61.8661 72.3011 61.8266 72.0977 61.8276 71.8926V49.2837C61.8276 48.8706 61.6635 48.4744 61.3714 48.1823C61.0793 47.8902 60.6831 47.7261 60.27 47.7261H52.3764C51.9633 47.7261 51.5672 47.8902 51.2751 48.1823C50.9829 48.4744 50.8188 48.8706 50.8188 49.2837V81.5229C50.8188 81.936 50.9829 82.3321 51.2751 82.6242C51.5672 82.9163 51.9633 83.0804 52.3764 83.0804H81.403C81.8161 83.0804 82.2122 82.9163 82.5043 82.6242C82.7964 82.3321 82.9605 81.936 82.9605 81.5229V49.3211C82.9586 48.9086 82.7939 48.5136 82.5022 48.2219C82.2105 47.9302 81.8155 47.7655 81.403 47.7635H73.5101C73.097 47.7635 72.7008 47.9276 72.4087 48.2197C72.1166 48.5118 71.9525 48.908 71.9525 49.3211V71.8922C71.9535 72.0974 71.9139 72.3007 71.8361 72.4906C71.7583 72.6804 71.6437 72.853 71.499 72.9984C71.3542 73.1438 71.1822 73.2592 70.9927 73.338C70.8033 73.4167 70.6001 73.4572 70.395 73.4572L70.3946 73.4576Z" fill="white"/>
</svg>

<svg width="92" height="92" fill="none" xmlns="http://www.w3.org/2000/svg"><path d="M92 0H0v92h92V0z" fill="#18181B"/><path d="M40.446 73.315H9.774a.735.735 0 0 0-.735.735v8.154c0 .406.33.735.735.735h30.672a.735.735 0 0 0 .735-.735V74.05a.735.735 0 0 0-.735-.735zM9.04 62.284a1.266 1.266 0 0 0 1.265 1.266h29.61a1.265 1.265 0 0 0 1.273-1.266v-7.092a1.267 1.267 0 0 0-1.272-1.272H21.313a1.266 1.266 0 0 1-1.265-1.265V32.397a1.266 1.266 0 0 0-1.266-1.266h-8.477a1.266 1.266 0 0 0-1.266 1.266v29.887z" fill="#fff"/><path d="M41.189 17.359V10.85a1.557 1.557 0 0 0-1.558-1.558H10.597a1.558 1.558 0 0 0-1.558 1.558v33.333a1.557 1.557 0 0 0 1.558 1.557h7.893a1.558 1.558 0 0 0 1.558-1.557v-23.71a1.558 1.558 0 0 1 1.557-1.558h18.018a1.558 1.558 0 0 0 1.565-1.557zM63.385 37.998h7.01a1.558 1.558 0 0 1 1.557 1.558v24.098h9.451a1.557 1.557 0 0 0 1.557-1.557V29.955a1.557 1.557 0 0 0-1.557-1.557H52.376a1.557 1.557 0 0 0-1.557 1.557v32.202a1.558 1.558 0 0 0 1.557 1.498h7.894a1.557 1.557 0 0 0 1.557-1.558v-22.54a1.557 1.557 0 0 1 1.558-1.558zM82.219 8.912H51.554a.735.735 0 0 0-.735.735V17.8c0 .406.329.735.735.735h30.665a.735.735 0 0 0 .735-.735V9.647a.735.735 0 0 0-.735-.735z" fill="#fff"/><path d="M70.395 73.458h-7.01a1.556 1.556 0 0 1-1.557-1.565v-22.61a1.558 1.558 0 0 0-1.558-1.557h-7.894a1.557 1.557 0 0 0-1.557 1.558v32.239a1.557 1.557 0 0 0 1.557 1.557h29.027a1.557 1.557 0 0 0 1.557-1.557V49.32a1.565 1.565 0 0 0-1.557-1.557H73.51a1.558 1.558 0 0 0-1.558 1.557v22.571a1.558 1.558 0 0 1-1.557 1.565z" fill="#fff"/></svg>
